icon-Calendar.svg

<svg width="100" height="100" viewBox="0 0 100 100" fill="none" xmlns="http://www.w3.org/2000/svg">
<path fill-rule="evenodd" clip-rule="evenodd" d="M68.4108 10.8459C68.2198 9.42696 67.0129 8.33334 65.5526 8.33334C63.9594 8.33334 62.668 9.63484 62.668 11.2403V14.4543H37.3672V11.2403L37.3409 10.8459C37.1499 9.42696 35.943 8.33334 34.4826 8.33334C32.8895 8.33334 31.598 9.63484 31.598 11.2403V14.5264C19.7773 15.3406 12.5 22.9997 12.5 35.3575V70.4336C12.5 83.6968 20.6597 91.6667 33.7344 91.6667H66.2652C79.3554 91.6667 87.4997 83.8303 87.4997 70.7268V35.3575C87.5374 22.9953 80.2835 15.3383 68.4372 14.5261V11.2403L68.4108 10.8459ZM62.668 20.2682V23.9953L62.6943 24.3897C62.8853 25.8086 64.0922 26.9023 65.5526 26.9023C67.1457 26.9023 68.4372 25.6008 68.4372 23.9953V20.3541C77.0562 21.0712 81.7582 26.2614 81.7305 35.3485V37.032H18.2692V35.3575C18.2692 26.2761 22.9969 21.0749 31.598 20.3547V23.9953L31.6244 24.3897C31.8154 25.8086 33.0223 26.9023 34.4826 26.9023C36.0758 26.9023 37.3672 25.6008 37.3672 23.9953V20.2682H62.668ZM18.2692 42.846V70.4336C18.2692 80.4445 23.8063 85.8527 33.7344 85.8527H66.2652C76.2274 85.8527 81.7305 80.5576 81.7305 70.7268L81.7305 42.846H18.2692ZM70.0049 55.0763C70.0049 53.4709 68.7134 52.1694 67.1203 52.1694L66.6933 52.1959C65.2853 52.3884 64.2001 53.6047 64.2001 55.0763C64.2001 56.6818 65.4916 57.9833 67.1203 57.9833L67.5117 57.9568C68.9197 57.7643 70.0049 56.548 70.0049 55.0763ZM50.0532 52.1694C51.6464 52.1694 52.9378 53.4709 52.9378 55.0763C52.9378 56.548 51.8526 57.7643 50.4447 57.9568L50.0532 57.9833C48.4245 57.9833 47.133 56.6818 47.133 55.0763C47.133 53.6047 48.2182 52.3884 49.6262 52.1959L50.0532 52.1694ZM35.8351 55.0763C35.8351 53.4709 34.5436 52.1694 32.9505 52.1694L32.5235 52.1959C31.1155 52.3884 30.0303 53.6047 30.0303 55.0763C30.0303 56.6818 31.3218 57.9833 32.9149 57.9833L33.3419 57.9568C34.7499 57.7643 35.8351 56.548 35.8351 55.0763ZM67.1203 67.2334C68.7134 67.2334 70.0049 68.5349 70.0049 70.1404C70.0049 71.6121 68.9197 72.8283 67.5117 73.0208L67.1203 73.0474C65.4916 73.0474 64.2001 71.7459 64.2001 70.1404C64.2001 68.6687 65.2853 67.4524 66.6933 67.2599L67.1203 67.2334ZM52.9378 70.1404C52.9378 68.5349 51.6464 67.2334 50.0532 67.2334L49.6262 67.2599C48.2182 67.4524 47.133 68.6687 47.133 70.1404C47.133 71.7459 48.4245 73.0474 50.0532 73.0474L50.4447 73.0208C51.8526 72.8283 52.9378 71.6121 52.9378 70.1404ZM32.9505 67.2334C34.5436 67.2334 35.8351 68.5349 35.8351 70.1404C35.8351 71.6121 34.7499 72.8283 33.3419 73.0208L32.9149 73.0474C31.3218 73.0474 30.0303 71.7459 30.0303 70.1404C30.0303 68.6687 31.1155 67.4524 32.5235 67.2599L32.9505 67.2334Z" fill="#505050"/>
</svg>

<?xml version="1.0" encoding="utf-8"?>
<!-- Generator: Adobe Illustrator 25.2.1, SVG Export Plug-In . SVG Version: 6.00 Build 0)  -->
<svg version="1.1" id="Layer_1" xmlns="http://www.w3.org/2000/svg" xmlns:xlink="http://www.w3.org/1999/xlink" x="0px" y="0px"
	 viewBox="0 0 100 100" style="enable-background:new 0 0 100 100;" xml:space="preserve">
<style type="text/css">
	.st0{fill-rule:evenodd;clip-rule:evenodd;fill:#505050;}
</style>
<path class="st0" d="M68.4,10.8c-0.2-1.4-1.4-2.5-2.9-2.5c-1.6,0-2.9,1.3-2.9,2.9v3.2H37.4v-3.2l0-0.4c-0.2-1.4-1.4-2.5-2.9-2.5
	c-1.6,0-2.9,1.3-2.9,2.9v3.3C19.8,15.3,12.5,23,12.5,35.4v35.1c0,13.3,8.2,21.2,21.2,21.2h32.5c13.1,0,21.2-7.8,21.2-20.9V35.4
	c0-12.4-7.2-20-19.1-20.8v-3.3L68.4,10.8z M62.7,20.3V24l0,0.4c0.2,1.4,1.4,2.5,2.9,2.5c1.6,0,2.9-1.3,2.9-2.9v-3.6
	c8.6,0.7,13.3,5.9,13.3,15V37H18.3v-1.7c0-9.1,4.7-14.3,13.3-15V24l0,0.4c0.2,1.4,1.4,2.5,2.9,2.5c1.6,0,2.9-1.3,2.9-2.9v-3.7H62.7z
	 M18.3,42.8v27.6c0,10,5.5,15.4,15.5,15.4h32.5c10,0,15.5-5.3,15.5-15.1V42.8H18.3z M70,55.1c0-1.6-1.3-2.9-2.9-2.9l-0.4,0
	c-1.4,0.2-2.5,1.4-2.5,2.9c0,1.6,1.3,2.9,2.9,2.9l0.4,0C68.9,57.8,70,56.5,70,55.1z M50.1,52.2c1.6,0,2.9,1.3,2.9,2.9
	c0,1.5-1.1,2.7-2.5,2.9l-0.4,0c-1.6,0-2.9-1.3-2.9-2.9c0-1.5,1.1-2.7,2.5-2.9L50.1,52.2z M35.8,55.1c0-1.6-1.3-2.9-2.9-2.9l-0.4,0
	c-1.4,0.2-2.5,1.4-2.5,2.9c0,1.6,1.3,2.9,2.9,2.9l0.4,0C34.7,57.8,35.8,56.5,35.8,55.1z M67.1,67.2c1.6,0,2.9,1.3,2.9,2.9
	c0,1.5-1.1,2.7-2.5,2.9l-0.4,0c-1.6,0-2.9-1.3-2.9-2.9c0-1.5,1.1-2.7,2.5-2.9L67.1,67.2z M52.9,70.1c0-1.6-1.3-2.9-2.9-2.9l-0.4,0
	c-1.4,0.2-2.5,1.4-2.5,2.9c0,1.6,1.3,2.9,2.9,2.9l0.4,0C51.9,72.8,52.9,71.6,52.9,70.1z M33,67.2c1.6,0,2.9,1.3,2.9,2.9
	c0,1.5-1.1,2.7-2.5,2.9l-0.4,0c-1.6,0-2.9-1.3-2.9-2.9c0-1.5,1.1-2.7,2.5-2.9L33,67.2z"/>
</svg>
